packages/vibrant-icons/assets/icons/Hashtag/Thin.svg

<svg width="24" height="24" viewBox="0 0 24 24" fill="none" xmlns="http://www.w3.org/2000/svg">
<path fill-rule="evenodd" clip-rule="evenodd" d="M9.37179 7.15002L10 2.25H8.25L7.62179 7.15002H3.25345L3.125 8.85002H7.40384L6.59615 15.15H2.37845L2.25 16.85H6.3782L5.75 21.75H7.5L8.1282 16.85H14.6282L14 21.75H15.75L16.3782 16.85H20.7466L20.875 15.15H16.5962L17.4038 8.85002H21.6216L21.75 7.15002H17.6218L18.25 2.25H16.5L15.8718 7.15002H9.37179ZM14.8462 15.15L15.6538 8.85002H9.15384L8.34615 15.15H14.8462Z" fill="#0C0C0C"/>
</svg>

<svg xmlns="http://www.w3.org/2000/svg" width="24" height="24" fill="none"><path fill="#0C0C0C" fill-rule="evenodd" d="M9.372 7.15 10 2.25H8.25l-.628 4.9H3.253l-.128 1.7h4.279l-.808 6.3H2.378l-.128 1.7h4.128l-.628 4.9H7.5l.628-4.9h6.5L14 21.75h1.75l.628-4.9h4.369l.128-1.7h-4.279l.808-6.3h4.218l.128-1.7h-4.128l.628-4.9H16.5l-.628 4.9zm5.474 8 .808-6.3h-6.5l-.808 6.3z" clip-rule="evenodd"/></svg>
